X:1
T:Bratislava, 11.11.11.11
T:Bratislava, 11.11.11.11
T:John Robson Sweney, 1891
T:Public Domain Courtesy of the Cyber Hymnal™
C:John Robson Sweney, 1891
Z:Public Domain
Z:Courtesy of the Cyber Hymnal™
%%score ( 1 2 ) ( 3 4 )
L:1/8
Q:1/4=155
M:3/4
K:Eb
V:1 treble 
V:2 treble 
V:3 bass 
V:4 bass 
V:1
 G4 ^F2 | A4 G2 | G6 | F4 z2 | F4 =E2 | F4 G2 | E6- | E4 z2 | B4 B2 | =A4 B2 | c6 | B4 z2 | G4 G2 | %13
 A4 G2 | F6- | F4 z2 | [DF]4 [EG]2 | [FA]4 z2 | [EG]4 [FA]2 | [GB]4 z2 | [Ge]4 [Ac]2 | %21
 [GB]4 [FA]2 | F6- | [DF]4 z2 | [EG]4 [DA]2 | [EB]4 [GB]2 | (e4 A2) | [GB]4 z2 | (E2 A2) [EG]2 | %29
 [DG]4 [B,F]2 | E6- | [B,E]4 |] %32
V:2
 x6 | x6 | x6 | x6 | x6 | x6 | x6 | x6 | x6 | x6 | x6 | x6 | x6 | x6 | x6 | x6 | x6 | x6 | x6 | %19
 x6 | x6 | x6 | D4 E2 | x6 | x6 | x6 | ^F6 | x6 | E4 x2 | x6 | B,4 C2 | x4 |] %32
V:3
 B,4 =A,2 | C4 B,2 | B,6 | A,4 z2 | A,4 G,2 | A,4 B,2 | G,6- | G,4 z2 | G,4 G,2 | ^F,4 G,2 | A,6 | %11
 G,4 z2 | E4 E2 | F4 E2 | D6- | D4 z2 | [B,,B,]4 [B,,B,]2 | [B,,B,]4 z2 | [E,B,]4 [E,B,]2 | %19
 [E,B,]4 z2 | [E,B,]4 [E,E]2 | [E,E]4 [E,B,]2 | B,4 ([F,=A,]2 | [B,,B,]4) z2 | [E,B,]4 [F,B,]2 | %25
 [G,B,]4 [E,B,]2 | (=A,4 C2) | [E,E]4 z2 | (G,2 C2) [E,B,]2 | [B,,B,]4 [B,,A,]2 | G,4 A,2 | %31
 [E,G,]4 |] %32
V:4
 x6 | x6 | x6 | x6 | x6 | x6 | x6 | x6 | x6 | x6 | x6 | x6 | x6 | x6 | x6 | x6 | x6 | x6 | x6 | %19
 x6 | x6 | x6 | B,4 x2 | x6 | x6 | x6 | E,6 | x6 | E,4 x2 | x6 | E,6- | x4 |] %32

